X:19
T:Raglan Road
M:C
L:1/8
K:D
(DE)|F6 E2|F6 EF|A6 A2|B6 (AF)|\
D6 (FE)| D6 D2|(D8|D4) z2 A2|\
B6 A2|F6 E2| D6 (FG)|A6 F2| d6 F2|
(E8|E4) z2 A2|B6 d2|\
F6 E2|D6 A2|A6 GF|d6 F2|\
(E8|E4) z2 DE| F6 F2| F6 EF|\
A6 A2|B6 AF|D6 (FE)|D6 D2|D6 |>|
